X:1
T:When Icicles Hang by the Wall
T:When Icicles Hang by the Wall
T:Copyright © CPDL
T:Copyright © CPDL
T:Copyright © CPDL
T:Copyright © CPDL
T:Copyright © CPDL
T:Copyright © CPDL
Z:Copyright © CPDL
%%score 1 ( 2 3 ) ( 4 5 )
L:1/8
Q:1/4=120
M:4/4
K:Bb
V:1 treble nm="P1"
V:2 treble nm="P2"
V:3 treble 
V:4 bass nm="P3"
V:5 bass 
V:1
"^Editor: John Henry Fowler""^(  Revision:   4 - 21 - 2008  )""^Allegretto." z5/2 | %1
w: |
"^\"Winter\" from William Shakespeare's play \"Love's Labour's lost\".""^From \"English Lyrics\" -  Set 2 -  Number 5" z8 | %2
w: |
 z8 |"^Charles Hubert Hastings Parry""^( 1848 - 1918 )" z8 | z8 | z8 | z4 z2!p! F2 | %7
w: ||||When|
 d>c B2 c2 d>e | f6 F2 | B3 B A2 B2 | G2!mf! e2 d3 d |!f! d2 A2 d4- | dddA d3!mf! d | c2 A2 B2 d2 | %14
w: i- ci- cles hang by the|wall And|Dick the shep- herd|blows his nail, And|Tom bears logs|_ in- to the hall And|milk comes fro- zen|
 c6 c2 | F6!p! f2 | (ef) e2 c2 f2 | (ef) (ed) c2 d2 |"^sostenuto"!f! g3 g f2 d2 | c2 B2 c4 | %20
w: home in|pail; When|blood _ is nipt, and|ways _ be _ fowl, Then|night- ly sings the|star- ing owl|
"^a tempo" z2 z!p! d!<(! f4-!<)! | f4 z dgd | f4- fdcA | F8 | z2!p! B2!<(! B2!<)!!>(! d2!>)! | %25
w: Tu- whoo|_ tu- whit tu-|whoo _ a mer- ry|note~!|While grea- sy|
 c3 G G2 A2 | B4 z4 | z8 | z8 | z8 ||[K:Db] z4 z2 z!p! B | d>c cB (c d2) e | %32
w: Joan doth keel the|pot.||||When|all a- round the wind _ doth|
!<(! f6!<)!!>)!!>(! f2 |!mf! B2 B2 A3 A | G2 B2 F3!p! c | f2 f2 e2 e2 | d3 e c3 c | %37
w: blow And|cough- ing drowns the|par- sons saw And|birds sit brood- ing|in the snow And|
!mf! Bc d2 A2 f2 | B2 d2 A3 d ||[K:Bb]"^cresc."!<(! c2!<)! c2 f4 | c2"^cresc."!<(! c>c!<)! f4- | %41
w: Ma- ri- ons nose looks|red and raw; And|roast- ed crabs|hiss in the bowl|
 f6 B2 |"^sostenuto"!f! g3 g"^dim." f2 d2 | c2 B2 c4 |"^a tempo" z2 z!p! d f4- | f4- fdgd | %46
w: _ Then|night- ly sings the|star- ing owl,|Tu- whoo~!|_ _ tu- whit~! tu-|
 f4- fdcA | F8 | z2!p! B2 B2 d2 | c3 G G2 A2 | B6 z2 | z8 | z8 | z8 | z8 |] %55
w: whoo _ a mer- ry|note~!|While grea- sy|Joan doth keel the|pot.|||||
V:2
 ([Bd]/ .f2) | !tenuto![Fc]4 z3/2 ([Bd]/ .f2) | !tenuto![Fc]6 z .F | (!>!B8 | B8) | %5
 z3/2!<(! ([B,D]/ .F2)!<)! !tenuto![F,C]4 | z3/2 ([B,D]/ .F2) !tenuto![F,C]4 | %7
 z3/2 ([B,D]/ .F2) !tenuto![F,C]4 | z3/2 ([B,D]/ .F2) !tenuto![F,C]4 | %9
 z3/2 ([B,D]/ .F2) !tenuto![F,C]4 | z3/2 ([G,E]/ .B2) !tenuto![B,DF]2 (A/4B/4^c/4d/4.g) | %11
 [FAdf]2 z2[K:bass] .D2 .A,2 | [FAdf]2 z2 !>!.d2 !>!.D2 | .=E.G .F.A .D.F .B,.D | %14
 .A,.C .B,.D !tenuto!C4 | z2 [F,F]4 [F,F]2 | z3/2 ([EG]/ .B2) [A,CF]4 | %17
 z3/2 ([EG]/ .B2) [A,CF]2 [_A,DF]2 | [G,EG]4 [=A,CF]2 [G,B,D]2 | [E,G,C]2 [D,G,B,]2 (G,2 A,2) | %20
 z3/2 ([B,D]/ .F2) !tenuto![F,C]4 | z3/2 ([B,D]/ .F2) !tenuto![F,C]4 | %22
 z3/2 ([B,D]/ .F2) !tenuto![F,C]4 | z3/2 ([B,D]/ .F2) !tenuto![F,C]3[K:treble] .F | (!>!B8 | %25
 (!>!B8) | z3/2) ([B,D]/ .F2) !tenuto![F,C]4 | z3/2 ([B,D]/ .F2) !tenuto![F,C]3[K:treble] F | %28
 (!>!B8 | B8) ||[K:Db][K:bass]!p!!<(! z (F, [D,A,][F,C]!<)!!>(! [G,E][B,D][E,C]!>)![G,B,]) | %31
 z3/2 ([B,D]/ .F2) !tenuto![F,C]3 F, | %32
!p!!<(! ([D,B,][F,C][D,B,][F,C]!<)!!>(! [G,E][B,D][E,C]!>)![G,B,]) | %33
 z7/4 (=A,/4 B,7/4)(D/4 F7/4)(=G,/4 _A,7/4)(C/4 | %34
 E7/4)[K:bass](F,/4 G,7/4)B,/4 [F,F]7/4(=E,/4 F,) z | z2 (FA) (E B3) | z2 (FA) (E B3) | %37
 z2 (Bd) (A f3) | z2 (Bd) (A f3) ||[K:Bb] (3:2:2(z2 A) (3([FA]GA) (B2 A2) | %40
 (3:2:2z2 A (3([=EG]FG) ([FA]2 F2) | %41
 (3:2:2z2 A (3([CFA]G[B,EA]) (3:2:2(([B,FB]2 c) (3:2:2(([_ABd]2) f)) | %42
 [Geg]2 [G,EG]2 [A,CF]2 [G,B,D]2 | [E,G,C]2 [D,G,B,]2 (G,2 A,2) | %44
 z3/2 ([B,D]/ .F2) !tenuto![F,C]4 | z3/2 ([B,D]/ .F2) !tenuto![F,C]4 | %46
 z3/2 ([B,D]/ .F2) !tenuto![F,C]4 | z3/2 ([B,D]/ .F2) [F,C]3[K:treble] F | (!>!B8 | !>!B8) | %50
 z3/2 ([B,D]/ F2) [F,C]4 | z3/2 ([B,D]/ F2) !tenuto![F,C]3[K:treble] F | !>!B8 | %53
 z2 z [B,D] !>!F4- | F8 |] %55
V:3
 x5/2 | x8 | x8 | z2 z G (3(FGF DF | G2) (F4 D2) | x8 | x8 | x8 | x8 | x8 | x8 | x4[K:bass] x4 | %12
 x8 | x8 | x8 | x8 | x8 | x8 | x8 | x4 [E,C]4 | x8 | x8 | x8 | x7[K:treble] x | z2 z G (3(FGF DF | %25
 E2) G2 (3(EFE DC) | x8 | x7[K:treble] x | z2 z _G (3(FGF _DF | _G2) (F4 _D2) ||[K:Db][K:bass] x8 | %31
 x8 | x8 | x8 | x7/4[K:bass] x25/4 | x2 (C2 E2 C2) | x2 (C2 E2 C2) | x2 (D2 F2 x2) | %38
 x2 (D2 F2 x2) ||[K:Bb] x4 F4 | x4 x4 | x8 | x8 | x4 [E,C]4 | x8 | x8 | x8 | x7[K:treble] x | %48
 z2 z G (3(FGF DF | E2) (G2 (3FGF DC) | x8 | x7[K:treble] x | z2 z G (3(FGF DC) | x8 | x8 |] %55
V:4
!p! ([B,D]/ .F2) | [F,C]4 z3/2 ([B,D]/ .F2) | [F,C]6 z .F, | (!>!B,8 | B,8) | %5
"^cresc."!<(! [B,,,F,,]8!<)! | [B,,,F,,]8 | [B,,,F,,]8 | [B,,,F,,]8 |"^cresc." [B,,,F,,]8 | %10
 [B,,,F,,]8 |!f! [D,,D,]2 z2 !>!.D,2 !>!.A,,2 | [D,,A,,D,]2 z2 D,2 D,,2 | %13
!mf! .=E,,.G,, .F,,.A,, .D,,.F,, .B,,,.D,, | .A,,,.C,, .B,,,.D,, !tenuto!C,,4 | %15
!>(! [F,,,C,,F,,]8!>)! |!p! [F,,C,]6 F,,2 | [F,,C,]6!<)!!<(! [B,,,B,,]2 | %18
!f!"^meno mosso" [E,,,E,,]4 [F,,,F,,]2 [G,,,G,,]2 | [C,,C,]2 G,,2 C,4 |!p!"^a tempo" [B,,,F,,]8 | %21
 [B,,,F,,]8 | [B,,,F,,]8 | [B,,,F,,]6!mf! z [F,,F,] |!p! (!>!B,,8 | !>!B,,8) |!p! [B,,,F,,]8 | %27
 [B,,,F,,]6 z!mf! F,, |!p! (!>!B,,8 | B,,8) ||[K:Db]!p!!>(!!<(! [B,,,F,,]8!>)!!<)! | %31
!pp! [B,,,F,,]8 |!p!!pp!!>(!!<(! [B,,,F,,]8!>)!!<)! | %33
!mf! B,,,7/4(=A,,/4 B,,2) _A,,,7/4(=G,,/4 A,,2) | _G,,,7/4(F,,/4 G,,2) =F,,,7/4(=E,,/4 F,,2) | %35
!p! [B,,,F,,]8 | [B,,,F,,]8 | [B,,,F,,]8 | [B,,,F,,]8 || %39
[K:Bb]"^cresc."!<(! z2 (3(CB,C)!<)! (D2 C2) |"^cresc."!<(! z2 (3(B,A,B,) (C2 A,2)!<)! | %41
 [F,,C,]4!<(! [D,,D,]2!<)! [B,,,B,,]2 |!f!"^sostenuto" [E,,B,,]4"^dim." F,,2 G,,2 | %43
 C,2 G,,2 (C,,2 F,,2) |!p!"^a tempo" [B,,,F,,]8 | [B,,,F,,]8 | [B,,,F,,]8 | [B,,,F,,]6 z F,, | %48
 (!>!B,,8 | !>!B,,8) | [B,,,F,,]8 | [B,,,F,,]6 z!mf! F,, | !>!B,,8 |!p! [B,,,F,,]8 | %54
 !>![B,,,F,,]8 |] %55
V:5
 x5/2 | x8 | x8 | z2 z G, (3(F,G,F, D,F, | G,2) (F,4 D,2) | x8 | x8 | x8 | x8 | x8 | x8 | x8 | x8 | %13
 x8 | x8 | x8 | x8 | x8 | x8 | x4 (C,,2 F,,2) | x8 | x8 | x8 | x8 | z2 z G,, (3(F,,G,,F,, D,,F,, | %25
 E,,2) G,,2 (3(E,,F,,E,, D,,C,,) | x8 | x8 | z2 z _G,, (3(F,,G,,F,, _D,,F,, | %29
 _G,,2)!>(! (F,,4!>)! _D,,2) ||[K:Db] x8 | x8 | x8 | x8 | x8 | x4 G,2 E,2 | x4 G,2 E,2 | %37
 x4 F2 A,2 | x4 F2 A,2 ||[K:Bb] [F,,C,]4 x4 | [F,,C,]8 | x8 | x8 | x8 | x8 | x8 | x8 | x8 | %48
 z2 z G,, (3(F,,G,,F,, D,,F,,) | E,,2 (G,,2 (3F,,G,,F,, D,,C,,) | x8 | x8 | %52
 z2 z G,, (3(F,,G,,F,, D,,C,,) | x8 | x8 |] %55

